X:256
T:Polska efter August Nyholm
T:(SvL Hälsingland 256)
S:August Nyholm
R:Polska
O:Delsbo, Hälsingland
B:Svenska Låtar Hälsingland
Z:Till abc Jonas Brunskog
M:3/4
L:1/8
K:F
fa/f/ eg/e/ fa/f/| cb b/g/b/g/ a2|fc ba gf|e/f/g/f/ e/d/c/B/ A/G/F/E/|
fa/f/ eg/e/ fa/f/| cb b/g/b/g/ a2|fc ba gf|e/f/g/a/ g2 Tf2:|
|:F3 (A/c/) c/B/A/B/|BG G(B/d/) c/B/A/G/|FA ca gf|e/f/g/f/ e/d/c/B/ A/G/F/E/|
F3 (A/c/) c/B/A/B/|BG G(B/d/) c/B/A/G/|FA ca gf|e/f/g/a/ g2 Tf2:|

